svg/l/BA.svg

<svg width="32" height="24" viewBox="0 0 32 24" fill="none" xmlns="http://www.w3.org/2000/svg">
<g clip-path="url(#clip0_270_67491)">
<rect width="32" height="24" fill="white"/>
<path fill-rule="evenodd" clip-rule="evenodd" d="M0 0H32V24H0V0Z" fill="#2E42A5"/>
<path fill-rule="evenodd" clip-rule="evenodd" d="M9 0H29V24L9 0Z" fill="#FECA00"/>
<path fill-rule="evenodd" clip-rule="evenodd" d="M6.10805 2.79376L4.93248 3.4118L5.15699 2.10278L4.20593 1.17573L5.52026 0.984745L6.10805 -0.206238L6.69583 0.984745L8.01016 1.17573L7.0591 2.10278L7.28362 3.4118L6.10805 2.79376Z" fill="#F7FCFF"/>
<path fill-rule="evenodd" clip-rule="evenodd" d="M9.59474 7.07391L8.41917 7.69195L8.64368 6.38293L7.69263 5.45588L9.00695 5.2649L9.59474 4.07391L10.1825 5.2649L11.4969 5.45588L10.5458 6.38293L10.7703 7.69195L9.59474 7.07391Z" fill="#F7FCFF"/>
<path fill-rule="evenodd" clip-rule="evenodd" d="M12.8634 11.2384L11.6878 11.8564L11.9124 10.5474L10.9613 9.62037L12.2756 9.42939L12.8634 8.2384L13.4512 9.42939L14.7655 9.62037L13.8145 10.5474L14.039 11.8564L12.8634 11.2384Z" fill="#F7FCFF"/>
<path fill-rule="evenodd" clip-rule="evenodd" d="M16.0653 15.2292L14.8898 15.8473L15.1143 14.5383L14.1632 13.6112L15.4775 13.4202L16.0653 12.2292L16.6531 13.4202L17.9674 13.6112L17.0164 14.5383L17.2409 15.8473L16.0653 15.2292Z" fill="#F7FCFF"/>
<path fill-rule="evenodd" clip-rule="evenodd" d="M19.5144 19.3368L18.3388 19.9548L18.5634 18.6458L17.6123 17.7188L18.9266 17.5278L19.5144 16.3368L20.1022 17.5278L21.4165 17.7188L20.4655 18.6458L20.69 19.9548L19.5144 19.3368Z" fill="#F7FCFF"/>
<path fill-rule="evenodd" clip-rule="evenodd" d="M23.3269 23.311L22.1513 23.9291L22.3759 22.6201L21.4248 21.693L22.7391 21.502L23.3269 20.311L23.9147 21.502L25.229 21.693L24.278 22.6201L24.5025 23.9291L23.3269 23.311Z" fill="#F7FCFF"/>
</g>
<defs>
<clipPath id="clip0_270_67491">
<rect width="32" height="24" fill="white"/>
</clipPath>
</defs>
</svg>

<svg width="32" height="24" fill="none" xmlns="http://www.w3.org/2000/svg">
  <mask id="a" maskUnits="userSpaceOnUse" x="0" y="0" width="34" height="24">
    <path fill="#fff" d="M0 0h34v24H0z"/>
  </mask>
  <g mask="url(#a)" fill-rule="evenodd" clip-rule="evenodd">
    <path d="M0 0h32v24H0V0z" fill="#2E42A5"/>
    <path d="M9 0h20v24L9 0z" fill="#FECA00"/>
    <path d="M6.108 2.794l-1.176.618.225-1.31-.951-.926L5.52.985l.588-1.191.588 1.19 1.314.192-.95.927.224 1.309-1.176-.618zm3.487 4.28l-1.176.618.225-1.31-.951-.926 1.314-.191.588-1.191.587 1.19 1.315.192-.951.927.224 1.309-1.175-.618zm3.268 4.164l-1.175.618.224-1.309-.95-.927 1.314-.19.587-1.192.588 1.191 1.314.191-.95.927.224 1.31-1.176-.619zm3.202 3.992l-1.175.617.224-1.309-.95-.927 1.313-.19.588-1.192.588 1.191 1.314.191-.95.927.224 1.31-1.176-.619zm3.449 4.107l-1.175.618.224-1.31-.95-.926 1.314-.191.587-1.191.588 1.19 1.314.192-.95.927.224 1.309-1.176-.618zm3.813 3.974l-1.176.618.225-1.309-.951-.927 1.314-.191.588-1.191.588 1.191 1.314.191-.951.927.225 1.31-1.176-.619z" fill="#F7FCFF"/>
  </g>
</svg>
